X:1
T:Title
L:1/8
M:4/4
K:C
V:1 treble nm="Grand Piano"
V:1
 z4 z[Q:1/4=100] EEE | A2 A^G GFFE | FE D2- DDDE | F2 ^GG AGFG | F2 E2 ^GA B2 | B2 B2 B2 BA | %6
 cBA^G FG A2 | A2 A2 A2 A^G | BA ^G2 DD E2 | F2 A^G GFFE | F2 E2 z EEE | A2 A^G GFFE | %12
 FE D2- DDDE | F2 ^G2 AGFG | F2 E2 ^GA B2 | B3 B B2 BA | cBA^G FGAA | A2 A2 AAA^G | BA ^G2 D2 E2 | %19
 F2 A^G GF F2 | E6 z2 |] %21

